X:1
T:Come To Me in Canada
M:4/4
L:1/8
K:E
 B| BG FE G G2 B| B3/2 G/2 FE A3 B| BF =F^F BF GG| GE DC F3| B| BG FE G G2 B|\
 BG FE A3 A| GF =F^F G F2 G/2G/2| GE DC F2| B3/2 B,/2| E2 E2 E3/2 F/2 GA|\
 B3/2 B/2 B4 B2| A3/2 G/2 F4 B2| G3/2 F/2 E4| B3/2 G/2| E2 E2 E3/2 F/2 GA|\
 B3/2 B/2 B4 B3/2 B/2| F2 B2 c2 F2| B6| B3/2 B/2| E2 E2 E3/2 F/2 GA|\
 B3/2 B/2 B4 z B| A3/2 G/2 F4 z B| GF E4| z B| cA AB c2 BG| F/2E/2 F C4 EF|\
 G B2 c G2 F2| E6 z||
